assets/images/simple-illustrations/simple-illustration__rules.svg

<svg xmlns="http://www.w3.org/2000/svg" fill="none" viewBox="0 0 48 48"><rect width="31.97" height="10.775" x="6.078" y="11.693" fill="#FFFAF0" stroke="#002140" rx="2.5"/><rect width="10.99" height="1.494" x="18.139" y="14.333" fill="#002140"/><rect width="16.485" height="1.494" x="18.139" y="18.258" fill="#002140"/><path fill="#03D47C" fill-rule="evenodd" d="M15.143 13.7811C15.5413 14.0752 15.6257 14.6364 15.3316 15.0346L11.431 20.3168L8.62785 17.7569C8.2623 17.423 8.23658 16.8561 8.57042 16.4905C8.90425 16.1249 9.47122 16.0992 9.83678 16.4331L11.1708 17.6513L13.8895 13.9697C14.1836 13.5714 14.7448 13.487 15.143 13.7811Z" clip-rule="evenodd"/><rect width="31.97" height="10.775" x="10.657" y="25.431" fill="#FFFAF0" stroke="#002140" rx="2.5"/><rect width="10.99" height="1.494" x="22.718" y="28.071" fill="#002140"/><rect width="16.485" height="1.494" x="22.718" y="31.996" fill="#002140"/><path fill="#F25730" d="M18.3683 33.5836C18.6715 33.8868 19.1631 33.8868 19.4664 33.5836C19.7696 33.2803 19.7696 32.7887 19.4664 32.4855L17.6865 30.7056L19.4664 28.9257C19.7696 28.6224 19.7696 28.1308 19.4664 27.8276C19.1631 27.5243 18.6715 27.5243 18.3683 27.8276L16.5884 29.6075L14.808 27.827C14.5047 27.5238 14.0131 27.5238 13.7099 27.827C13.4066 28.1303 13.4066 28.6219 13.7099 28.9251L15.4903 30.7056L13.7098 32.486C13.4066 32.7892 13.4066 33.2809 13.7098 33.5841C14.0131 33.8873 14.5047 33.8873 14.8079 33.5841L16.5884 31.8037L18.3683 33.5836Z"/></svg>

<svg xmlns="http://www.w3.org/2000/svg" fill="none" viewBox="0 0 48 48"><rect width="31.97" height="10.775" x="6.078" y="11.693" fill="#fffaf0" stroke="#002140" rx="2.5"/><path fill="#002140" d="M18.139 14.333h10.99v1.494h-10.99zm0 3.925h16.485v1.494H18.139z"/><path fill="#03d47c" fill-rule="evenodd" d="M15.143 13.781a.896.896 0 0 1 .189 1.254l-3.901 5.282-2.803-2.56a.896.896 0 0 1 1.209-1.324l1.334 1.218 2.719-3.681a.896.896 0 0 1 1.253-.189" clip-rule="evenodd"/><rect width="31.97" height="10.775" x="10.657" y="25.431" fill="#fffaf0" stroke="#002140" rx="2.5"/><path fill="#002140" d="M22.718 28.071h10.99v1.494h-10.99zm0 3.925h16.485v1.494H22.718z"/><path fill="#f25730" d="M18.368 33.584a.777.777 0 0 0 1.098-1.099l-1.78-1.78 1.78-1.78a.777.777 0 0 0-1.098-1.097l-1.78 1.78-1.78-1.781a.777.777 0 0 0-1.098 1.098l1.78 1.78-1.78 1.781a.777.777 0 0 0 1.098 1.098l1.78-1.78z"/></svg>
